X:15
T:The Red Cliff
R:reel
C:Tiennet Simonnin
M:C|
K:G
"G"gbab ~g3d|"C"e~g3 edBA|
"G"B~G3 dGBd|"C"eaag "D"fdef|
"G"gbab ~g3d|"C"e~g3 edBA|
"G"BGBd "C"eaag|1 "D"fdcA "G"G4:|2 "D"fdcA "G"GABd||
"C"~e3d egab|"D"~a3g fage|
"G"d~G3 eGdB|"Bm"AGAB dgfd|1 "C"~e3d egab|"D"~a3g fage|
"G"d~G3 "C"eGdB|"D"AGFA "G"GABd:|2 "C"edcd efge|"D"fgag fedc|
"G"BGBd "C"eaag|"D"fdcA "G"G4||
